beta/v2.0.12/images/settings.svg

<svg xmlns="http://www.w3.org/2000/svg" width="76" height="76" xml:space="preserve">﻿
  <path fill="#000000" fill-opacity="1" stroke-width="0.2" stroke-linejoin="round"
    d="M 25.3333,42.75C 26.5189,42.75 27.6436,43.0106 28.6533,43.4777L 34.9459,37.185L 32.5825,34.8217L 30.3433,37.0609L 28.1042,34.8217L 29.0343,33.8915C 27.1425,33.1521 25.7233,31.6492 23.4735,29.3994C 18.836,24.7619 16.1846,19.8945 18.0395,18.0396C 19.8945,16.1846 23.9702,18.0444 28.6077,22.6819C 30.8575,24.9317 33.1521,27.1425 33.8915,29.0344L 34.8217,28.1042L 37.0608,30.3433L 34.8217,32.5825L 37.185,34.9459L 43.4777,28.6533C 43.0106,27.6436 42.75,26.5189 42.75,25.3333C 42.75,20.9611 46.2944,17.4167 50.6667,17.4167C 51.6877,17.4167 52.6636,17.61 53.5597,17.9619L 47.5,24.0216L 51.9783,28.5L 58.0381,22.4403C 58.39,23.3364 58.5833,24.3123 58.5833,25.3333C 58.5833,29.7056 55.0389,33.25 50.6667,33.25C 49.8136,33.25 48.9921,33.1151 48.2222,32.8654L 41.6634,39.4242L 50.8787,48.6395L 51.4384,48.0797L 56.8841,53.5253L 53.5253,56.8841L 48.0797,51.4384L 48.6395,50.8787L 39.4242,41.6634L 32.8654,48.2222C 33.1151,48.9921 33.25,49.8136 33.25,50.6667C 33.25,55.0389 29.7056,58.5833 25.3333,58.5833C 24.3123,58.5833 23.3364,58.39 22.4403,58.0381L 28.5,51.9783L 24.0217,47.5L 17.9619,53.5597C 17.61,52.6636 17.4167,51.6877 17.4167,50.6667C 17.4167,46.2944 20.9611,42.75 25.3333,42.75 Z ">
  </path>
</svg>

<svg xmlns="http://www.w3.org/2000/svg" width="76" height="76"><path d="M25.333 42.75c1.186 0 2.31.26 3.32.728l6.293-6.293-2.363-2.363-2.24 2.24-2.24-2.24.93-.93c-1.89-.74-3.31-2.243-5.56-4.493-4.637-4.638-7.288-9.505-5.433-11.36 1.855-1.855 5.93.004 10.568 4.642 2.25 2.25 4.544 4.46 5.284 6.352l.93-.93 2.24 2.24-2.24 2.24 2.363 2.362 6.293-6.293a7.917 7.917 0 0 1 10.082-10.69l-6.06 6.06 4.478 4.477 6.06-6.06a7.917 7.917 0 0 1-9.816 10.425l-6.56 6.56 9.217 9.215.558-.56 5.446 5.445-3.36 3.36-5.444-5.447.56-.56-9.216-9.215-6.56 6.56a7.917 7.917 0 0 1-10.425 9.816l6.06-6.06-4.478-4.48-6.06 6.06a7.917 7.917 0 0 1 7.37-10.81z"/></svg>
